assets/img/braze_icons/glasses-01.svg

<svg fill="none" height="24" viewBox="0 0 24 24" width="24" xmlns="http://www.w3.org/2000/svg"><path d="m2.46446 8.46446c1.95262-1.95262 5.11845-1.95261 7.07107 0 .50537.50538.87997 1.09202 1.12377 1.71784.8762-.2431 1.8052-.24307 2.6814.0001.2438-.62588.6184-1.21254 1.1238-1.71794 1.9526-1.95262 5.1184-1.95261 7.071 0 1.9527 1.95264 1.9526 5.11844 0 7.07104-1.9526 1.9527-5.1184 1.9527-7.071 0-.9327-.9326-1.4198-2.142-1.4616-3.3638-.6473-.2289-1.3585-.2289-2.0058-.0001-.0417 1.2218-.5289 2.4313-1.46156 3.3639-1.95262 1.9527-5.11845 1.9527-7.07108 0-1.952616-1.9526-1.952613-5.1184 0-7.07104z" fill="#801ed7"/></svg>

<svg width="24" height="24" viewBox="0 0 24 24" fill="none" xmlns="http://www.w3.org/2000/svg">
<path d="M2.46446 8.46446C4.41708 6.51184 7.58291 6.51185 9.53553 8.46446C10.0409 8.96984 10.4155 9.55648 10.6593 10.1823C11.5355 9.9392 12.4645 9.93923 13.3407 10.1824C13.5845 9.55652 13.9591 8.96986 14.4645 8.46446C16.4171 6.51184 19.5829 6.51185 21.5355 8.46446C23.4882 10.4171 23.4881 13.5829 21.5355 15.5355C19.5829 17.4882 16.4171 17.4882 14.4645 15.5355C13.5318 14.6029 13.0447 13.3935 13.0029 12.1717C12.3556 11.9428 11.6444 11.9428 10.9971 12.1716C10.9554 13.3934 10.4682 14.6029 9.53554 15.5355C7.58292 17.4882 4.41709 17.4882 2.46446 15.5355C0.511844 13.5829 0.511847 10.4171 2.46446 8.46446Z" fill="#801ED7"/>
</svg>
